X:255
T:Shetland Fiddler
R:reel
S:Altan
M:4/4
L:1/8
K:D
d2fd Adfe|defg afdf|e2ge Beed|cdef {a}gece|d2fd Adfe|defg afde|(3fga fd
(3fga fd|1 Bgec d2 Ac:|
2 Bgec d2 cd||:eAfA gAaA|fa{b}af gfed|A2BA cAdA|efed cABc|dAeA fAgA|fa{b
}af gefd|
(3fga fd (3fga fd|1 Bgec d2 cd:|2 Bgec d2 Ac||
% Output from ABC2Win  Version 2.0  on 2/25/97
